X:1
T:Nerevar Rising
T:Nerevar Rising
%%score 1 2
L:1/8
M:3/4
K:Eb
V:1 treble nm="Violin" snm="Vln."
V:2 treble nm="Violin" snm="Vln."
V:1
 z6 | z4 CD | E4 EF | G4 GB | F3 G/F/ ED | C4 CD | E4 EF | G4 GB | c4 B>d | c4 cd | e2 d2 c2 | %11
 B2 A2 G2 | F4 EG | F3 G/F/ ED | C4 CD | E4 EF | G4 GB | F3 G/F/ ED | C4 CD | E4 EF | G4 GB | %21
 c4 B>d | c4 cd | e2 d2 c2 | B2 A2 G2 | F3 G/F/ EG | F3 G/F/ ED | C4 F2 | c4 cd | e4 ef | g4 gb | %31
 f3 g/f/ ed | c4 cd | e4 ef | g4 gb | c'4 b>d' | c'4 c>d | e2 d2 c2 | B2 A2 G2 | F4 EG | %40
 F3 G/F/ ED | C6- | C4 ED | C6- | C6 | z6 | z6 | z6 | z6 | z6 | z6 | z6 | z6 | z6 | z6 | z6 | z6 | %57
 z6 | z6 | z6 | z6 | z6 | z6 | z6 | z6 |] %65
V:2
 C3 z2 C | C3 z AG | C4 CD | E4 E2 | D4 CB, | A,4 AG | C4 CD | E4 B,2 | CC C2 C2 | A,4 C2 | %10
 CA, DG, EG, | EC DB, E2 | D4 A,2 | B,4 ED | C4 z2 | EE/E/ EE/E/ EE/E/ | GG/G/ GG/G/ GG/G/ | %17
 DD/D/ DD/D/ D2 | A,A,/A,/ A,2 z2 | EE/E/ EE/E/ EE/E/ | GG/G/ GG/G/ GG/G/ | CC/C/ CC CC | F4 z2 | %23
 GB, FA, EG, | D2 C2 E2 | D4 B,C | D4 CB, | C2 F4 | C4 AB | c6 | e6 | d2 d2 cB | A2 G2 AB | %33
 c2 c2 cd | e2 e2 c2 | c4 G2 | A4 CD | E6 | G6 | c4 B2 | D4 G,2 | A,6- | A,6 | G,6- | G,6 | z6 | %46
 z6 | z6 | z6 | z6 | z6 | z6 | z6 | z6 | z6 | z6 | z6 | z6 | z6 | z6 | z6 | z6 | z6 | z6 | z6 |] %65

